test_waco/assets/benefits/last_tecnologies.svg

<svg fill="none" height="142" viewBox="0 0 143 142" width="143" xmlns="http://www.w3.org/2000/svg" xmlns:xlink="http://www.w3.org/1999/xlink"><filter id="a" color-interpolation-filters="sRGB" filterUnits="userSpaceOnUse" height="151.771" width="152.185" x="-10.1717" y="-10.1717"><feFlood flood-opacity="0" result="BackgroundImageFix"/><feColorMatrix in="SourceAlpha" result="hardAlpha" type="matrix" values="0 0 0 0 0 0 0 0 0 0 0 0 0 0 0 0 0 0 127 0"/><feMorphology in="SourceAlpha" operator="dilate" radius="2.9062" result="effect1_dropShadow"/><feOffset/><feGaussianBlur stdDeviation="3.63275"/><feColorMatrix type="matrix" values="0 0 0 0 0 0 0 0 0 1 0 0 0 0 0.407843 0 0 0 1 0"/><feBlend in2="BackgroundImageFix" mode="normal" result="effect1_dropShadow"/><feBlend in="SourceGraphic" in2="effect1_dropShadow" mode="normal" result="shape"/></filter><linearGradient id="b" gradientUnits="userSpaceOnUse" x1=".000242" x2="131.841" y1="65.7179" y2="65.7179"><stop offset="0" stop-color="#8fff70"/><stop offset="1" stop-color="#8fffff"/></linearGradient><linearGradient id="c"><stop offset="0" stop-color="#8fff73"/><stop offset="1" stop-color="#8ffff9"/></linearGradient><linearGradient id="d" gradientUnits="userSpaceOnUse" x1="32.1587" x2="99.1587" xlink:href="#c" y1="66.0877" y2="66.0877"/><linearGradient id="e" gradientUnits="userSpaceOnUse" x1="48.0702" x2="50.6865" xlink:href="#c" y1="76.7103" y2="76.7103"/><linearGradient id="f" gradientUnits="userSpaceOnUse" x1="80.6196" x2="83.2356" xlink:href="#c" y1="59.8149" y2="59.8149"/><clipPath id="g"><path d="m0 0h131.841v131.427h-131.841z"/></clipPath><clipPath id="h"><path d="m32.1587 32h67v67h-67z"/></clipPath><g filter="url(#a)"><g clip-path="url(#g)"><path d="m67.643 131.427c-.734 0-1.468-.018-2.2209-.056-8.5071-.471-16.4307-3.576-21.1736-8.319l-37.22802-37.2468c-4.70525-4.7053-7.264911-12.3843-7.0014166-21.0419.2634946-8.3942 3.1995766-16.2049 7.8860066-20.8726l15.07563-15.0756c.4329-.4329 1.1293-.4329 1.5622 0 .4328.4329.4328 1.1293 0 1.5621l-15.07568 15.0757c-4.2912 4.2912-6.9826 11.5373-7.22728 19.3668-.24467 7.9425 2.12678 15.1886 6.34269 19.4045l37.24677 37.2468c4.3665 4.367 11.7444 7.246 19.7245 7.679 8.0742.433 15.3579-1.769 19.4986-5.91l15.5275-15.527c.433-.433 1.129-.433 1.562 0s.433 1.129 0 1.562l-15.5274 15.527c-4.2347 4.273-11.0668 6.625-18.9716 6.625zm48.351-36.87c-.282 0-.564-.113-.79-.32-.433-.4329-.433-1.1293 0-1.5621l7.547-7.5473c4.178-4.1783 6.757-11.0479 6.87-18.3505.131-7.5096-2.259-14.2663-6.531-18.5575l-39.0162-39.01601c-4.2724-4.27237-11.3868-6.8885-19.0281-6.9826-7.6225-.09411-14.6428 2.29616-18.7834 6.43679l-9.7493 9.74932c-.4329.4329-1.1292.4329-1.5621 0s-.4329-1.1293 0-1.5622l9.7493-9.74926c4.5358-4.55469 12.1584-7.208459 20.3643-7.09553261 8.3377.11292661 15.8285 2.89844261 20.5714 7.62251261l39.0161 39.01598c4.705 4.7053 7.321 12.0455 7.19 20.1573-.132 7.8672-2.955 15.3015-7.529 19.8939l-7.547 7.5472c-.207.207-.489.32-.772.32z" fill="url(#b)"/><g clip-path="url(#h)"><path d="m99.1587 67.4013c0-3.8828-2.0357-7.4671-5.2866-9.4796.7179-1.496 1.0928-3.1361 1.0928-4.813 0-4.8248-5.9575-8.7345-9.8584-10.7767-.4165-5.7672-5.2398-10.332-11.1087-10.332-3.3193 0-6.3558 1.3407-8.4318 3.6562-2.0942-2.3153-5.066-3.6562-8.2465-3.6562-3.861 0-7.5143 2.0711-9.5189 5.3676-.9255 1.5219-1.4778 3.2618-1.5942 5.0393-.0006.0103-.002.0205-.0027.0308-.2352.1198-.5203.2697-.8685.4578-.8756.4726-2.1981 1.2379-3.5256 2.1992-3.621 2.6218-5.4571 5.318-5.4571 8.014 0 1.6769.3748 3.317 1.0926 4.813-3.2508 2.0125-5.2864 5.5968-5.2864 9.4796 0 3.7522 1.8625 7.1962 4.9333 9.2533-.4859 1.2693-.7395 2.6283-.7395 3.9904 0 4.0258 2.1264 7.6736 5.5896 9.6615 1.4556 5.073 7.2494 8.6935 14.0669 8.6935 3.5273 0 6.9803-1.0352 9.6424-2.8607 2.6455 1.8492 6.0317 2.8607 9.657 2.8607 6.8175 0 12.6114-3.6205 14.0669-8.6935 3.4633-1.9878 5.5896-5.6357 5.5896-9.6615 0-1.362-.2536-2.721-.7395-3.9904 3.0708-2.0571 4.9333-5.501 4.9333-9.2533zm-43.1497 28.9815c-5.7645 0-10.7767-3.1074-11.6587-7.2281-.0828-.3871-.3365-.716-.6899-.8943-2.1145-1.0673-3.6426-2.9137-4.3126-5.0936 1.0938.545 2.272.8223 3.5009.8223h.004c1.7804 0 3.6079-.6524 4.9814-1.782.5407-.4447.6209-1.3067.1812-1.8425-.4418-.5384-1.3054-.6206-1.8416-.181-.9487.7773-2.0976 1.1882-3.3238 1.1882-1.4673 0-2.8376-.6023-3.8288-1.6647.1129-1.0396.4144-2.0385.9021-2.9795.332-.6406.0829-1.4289-.5568-1.7624-2.8316-1.4764-4.5905-4.3748-4.5905-7.5639 0-3.3354 1.9634-6.3831 5.0019-7.7643.3466-.1576.6075-.4582.7144-.8235.1069-.3654.0495-.7593-.1573-1.0788-.8931-1.3798-1.3652-2.9796-1.3652-4.626 0-3.1024 4.4517-6.1991 7.4235-7.8208.5378 2.721 2.0818 5.1889 4.3555 6.8533.5528.4046 1.4149.2827 1.829-.2829.4269-.5832.3002-1.402-.283-1.8289-3.3007-2.4162-4.4283-7.0447-2.5943-10.6994 1.4325-2.8553 4.4228-4.7128 7.6191-4.7128 2.7773 0 5.3476 1.3372 6.9487 3.5956l.0001.132c-.0052.8628-.0076 2.7771-.0047 7.1036h-7.2797c-.5292 0-1.0063.3188-1.2089.8077s-.0907 1.0517.2833 1.426c2.0452 2.0462 2.0452 5.3755.0002 7.4218-1.984 1.9851-5.438 1.9791-7.4161 0-.5109-.5112-1.3394-.5114-1.8506-.0004-.5112.5109-.5114 1.3395-.0004 1.8506.202.2022.414.3909.6332.5679l-3.3132 3.4026c-1.781 1.7887-1.7789 4.6936.0063 6.4797 1.7503 1.7514 4.7423 1.7435 6.4848.0001.5109-.5113.5106-1.3397-.0005-1.8506-.5114-.5109-1.3396-.5108-1.8505.0002-.7206.7209-2.0378.7454-2.7826.0003-.7676-.768-.7676-2.0177 0-2.7859.004-.004.008-.0081.0119-.0121 0 0 3.8183-3.9212 3.8187-3.9218.0444-.0456 1.3689.3366 1.5353.3582 2.4072.3115 4.8604-.5234 6.5747-2.2386 2.3982-2.3996 2.9197-5.9767 1.5645-8.8885h4.7918c.003 3.3469.0084 7.7745.0166 13.6346h-3.2038v-.3306c0-.7228-.5858-1.3086-1.3086-1.3086-.7227 0-1.3086.5858-1.3086 1.3086v3.2781c0 .7227.5859 1.3086 1.3086 1.3086.7228 0 1.3086-.5859 1.3086-1.3086v-.3301h3.2075c.0009.6188.0096 6.4456.0131 8.6596h-3.6628c-.2214-.6106-.5753-1.1834-1.064-1.6723-.866-.8665-2.0174-1.3436-3.2423-1.3436-1.2248 0-2.3764.4771-3.2424 1.3436-.5109.5113-.5106 1.3398.0005 1.8508.5113.5107 1.3396.5106 1.8506-.0004 1.7377-1.7378 4.5859.9815 2.7825 2.7857-.5109.5111-.5108 1.3397.0004 1.8506.4929.4927 1.3448.5057 1.8506-.0004.6263-.6267 1.0323-1.3911 1.2196-2.1967h3.5115c.0051 3.0141.0102 5.8673.0153 8.4009h-10.2667c-.3472 0-.6801.1379-.9256.3836-1.7873 1.7881-1.7873 4.6977-.0001 6.486 1.7368 1.7379 4.7576 1.7283 6.4847.0001.5109-.5112.5108-1.3397-.0004-1.8506s-1.3394-.5107-1.8503.0001c-.7358.736-2.0515.7319-2.7827.0003-.65-.6504-.7497-1.6461-.2988-2.4023h9.6454c.0048 2.2348.0182 6.8373.0203 7.2523-2.2498 1.606-5.2495 2.5179-8.3355 2.5179zm35.9421-21.4175c-.6397.3336-.8888 1.1219-.5568 1.7624.6326 1.2208.9534 2.5388.9534 3.9174 0 3.237-1.7973 6.155-4.6906 7.6154-.3535.1784-.6071.5072-.6899.8943-.8821 4.1206-5.8943 7.228-11.6588 7.228-3.1272 0-6.1295-.9116-8.342-2.5164l-.0106-7.2539h4.7299c.4761 2.0245 2.2954 3.5366 4.4623 3.5366 2.5282 0 4.585-2.0577 4.585-4.5868s-2.0568-4.5867-4.585-4.5867c-1.9782 0-3.6677 1.2599-4.3092 3.0197h-4.8868l-.0122-8.4009h12.1536c.5645 1.8934 2.3201 3.2781 4.3938 3.2781 2.5282 0 4.5851-2.0576 4.5851-4.5867 0-2.5292-2.0569-4.5868-4.5851-4.5868-2.0737 0-3.8293 1.3848-4.3938 3.2782h-12.1575l-.0126-8.6596h2.8649c.5645 1.8934 2.3202 3.2781 4.3939 3.2781 2.5282 0 4.585-2.0576 4.585-4.5867 0-2.5292-2.0568-4.5868-4.585-4.5868-2.0737 0-3.8294 1.3848-4.3939 3.2782h-2.8687l-.0199-13.6347h3.8223c.5822 1.8645 2.3245 3.2217 4.3776 3.2217 2.5282 0 4.5851-2.0577 4.5851-4.5868s-2.0569-4.5867-4.5851-4.5867c-2.0942 0-3.8637 1.4123-4.4099 3.3346h-3.7938l-.0106-7.2472c1.5532-2.2513 4.184-3.5841 7.1126-3.5841 4.6983 0 8.5207 3.8247 8.5207 8.5259 0 .8076.6357 1.1297.9071 1.2672 5.5866 2.8298 8.922 6.0816 8.9221 8.6984.0002 3.2586-2.1347 7.0941-5.707 7.2094-.3494.0105-.6739.157-.9134.4122-.2395.2539-.3651.5876-.3533.937.0104.3415.1518.6608.3978.899.2447.2381.5679.369.9094.369h.004c.0118 0 .0247 0 .0365-.0013 2.1876-.2466 4.3132-1.0723 5.7626-2.7916 2.4941 1.5386 4.0572 4.2838 4.0572 7.2589 0 3.1891-1.7589 6.0875-4.5904 7.564zm-17.771 10.597c0-1.086.8828-1.9696 1.9679-1.9696s1.9679.8836 1.9679 1.9696-.8828 1.9696-1.9679 1.9696-1.9679-.8836-1.9679-1.9696zm7.3393-11.2767c0-1.086.8827-1.9695 1.9678-1.9695s1.9679.8835 1.9679 1.9695-.8828 1.9696-1.9679 1.9696-1.9678-.8834-1.9678-1.9696zm-9.305-11.2768c0-1.086.8827-1.9695 1.9678-1.9695s1.9679.8835 1.9679 1.9695-.8828 1.9696-1.9679 1.9696-1.9678-.8836-1.9678-1.9696zm.9173-16.3083c0-1.086.8828-1.9696 1.9678-1.9696 1.0851 0 1.9679.8836 1.9679 1.9696s-.8828 1.9695-1.9679 1.9695c-1.085 0-1.9678-.8835-1.9678-1.9695z" fill="url(#d)"/><path d="m49.4898 75.3838c-.3638-.0314-.725.0916-.9946.3376-.2434.2225-.3926.5261-.42.8545-.0301.3494.0772.6883.3036.9553.225.267.5404.4305.8885.4606.0379.0026.0746.0039.1125.0039.3272 0 .6399-.1217.882-.3428.2434-.2225.3926-.5261.4214-.8545 0-.0013 0-.0013-.0013-.0013.0602-.7184-.4737-1.3531-1.1921-1.4133z" fill="url(#e)"/><path d="m82.8379 58.8511s0 0-.0013-.0014c-.2447-.2368-.5679-.3664-.9081-.3664-.3586 0-.6936.1414-.9422.3992-.2421.2512-.373.5823-.3664.9317.0052.3494.1465.6752.3978.9173 0 0 0 .0013.0013.0013.2447.2369.5679.3677.9081.3677.3586 0 .6936-.1426.9422-.4004.4999-.5182.4868-1.3465-.0314-1.849z" fill="url(#f)"/></g></g></g></svg>

<svg width="143" height="142" viewBox="0 0 143 142" fill="none" xmlns="http://www.w3.org/2000/svg">
<g filter="url(#filter0_d)">
<g clip-path="url(#clip0)">
<path d="M67.643 131.427C66.909 131.427 66.175 131.409 65.4221 131.371C56.915 130.9 48.9914 127.795 44.2485 123.052L7.02048 85.8052C2.31523 81.0999 -0.244431 73.4209 0.0190634 64.7633C0.282558 56.3691 3.21864 48.5584 7.90507 43.8907L22.9807 28.8151C23.4136 28.3822 24.11 28.3822 24.5429 28.8151C24.9757 29.248 24.9757 29.9444 24.5429 30.3772L9.46722 45.4529C5.17602 49.7441 2.48462 56.9902 2.23994 64.8197C1.99527 72.7622 4.36672 80.0083 8.58263 84.2242L45.8294 121.471C50.1959 125.838 57.5738 128.717 65.5539 129.15C73.6281 129.583 80.9118 127.381 85.0525 123.24L100.58 107.713C101.013 107.28 101.709 107.28 102.142 107.713C102.575 108.146 102.575 108.842 102.142 109.275L86.6146 124.802C82.3799 129.075 75.5478 131.427 67.643 131.427ZM115.994 94.557C115.712 94.557 115.43 94.444 115.204 94.237C114.771 93.8041 114.771 93.1077 115.204 92.6749L122.751 85.1276C126.929 80.9493 129.508 74.0797 129.621 66.7771C129.752 59.2675 127.362 52.5108 123.09 48.2196L84.0738 9.20359C79.8014 4.93122 72.687 2.31509 65.0457 2.22099C57.4232 2.12688 50.4029 4.51715 46.2623 8.65778L36.513 18.4071C36.0801 18.84 35.3838 18.84 34.9509 18.4071C34.518 17.9742 34.518 17.2778 34.9509 16.8449L44.7002 7.09564C49.236 2.54095 56.8586 -0.112819 65.0645 0.000107385C73.4022 0.113034 80.893 2.89855 85.6359 7.62262L124.652 46.6386C129.357 51.3439 131.973 58.6841 131.842 66.7959C131.71 74.6631 128.887 82.0974 124.313 86.6898L116.766 94.237C116.559 94.444 116.277 94.557 115.994 94.557Z" fill="url(#paint0_linear)"/>
<g clip-path="url(#clip1)">
<path d="M99.1587 67.4013C99.1587 63.5185 97.123 59.9342 93.8721 57.9217C94.59 56.4257 94.9649 54.7856 94.9649 53.1087C94.9649 48.2839 89.0074 44.3742 85.1065 42.332C84.69 36.5648 79.8667 32 73.9978 32C70.6785 32 67.642 33.3407 65.566 35.6562C63.4718 33.3409 60.5 32 57.3195 32C53.4585 32 49.8052 34.0711 47.8006 37.3676C46.8751 38.8895 46.3228 40.6294 46.2064 42.4069C46.2058 42.4172 46.2044 42.4274 46.2037 42.4377C45.9685 42.5575 45.6834 42.7074 45.3352 42.8955C44.4596 43.3681 43.1371 44.1334 41.8096 45.0947C38.1886 47.7165 36.3525 50.4127 36.3525 53.1087C36.3525 54.7856 36.7273 56.4257 37.4451 57.9217C34.1943 59.9342 32.1587 63.5185 32.1587 67.4013C32.1587 71.1535 34.0212 74.5975 37.092 76.6546C36.6061 77.9239 36.3525 79.2829 36.3525 80.645C36.3525 84.6708 38.4789 88.3186 41.9421 90.3065C43.3977 95.3795 49.1915 99 56.009 99C59.5363 99 62.9893 97.9648 65.6514 96.1393C68.2969 97.9885 71.6831 99 75.3084 99C82.1259 99 87.9198 95.3795 89.3753 90.3065C92.8386 88.3187 94.9649 84.6708 94.9649 80.645C94.9649 79.283 94.7113 77.924 94.2254 76.6546C97.2962 74.5975 99.1587 71.1536 99.1587 67.4013ZM56.009 96.3828C50.2445 96.3828 45.2323 93.2754 44.3503 89.1547C44.2675 88.7676 44.0138 88.4387 43.6604 88.2604C41.5459 87.1931 40.0178 85.3467 39.3478 83.1668C40.4416 83.7118 41.6198 83.9891 42.8487 83.9891H42.8527C44.6331 83.9891 46.4606 83.3367 47.8341 82.2071C48.3748 81.7624 48.455 80.9004 48.0153 80.3646C47.5735 79.8262 46.7099 79.744 46.1737 80.1836C45.225 80.9609 44.0761 81.3718 42.8499 81.3718C41.3826 81.3718 40.0123 80.7695 39.0211 79.7071C39.134 78.6675 39.4355 77.6686 39.9232 76.7276C40.2552 76.087 40.0061 75.2987 39.3664 74.9652C36.5348 73.4888 34.7759 70.5904 34.7759 67.4013C34.7759 64.0659 36.7393 61.0182 39.7778 59.637C40.1244 59.4794 40.3853 59.1788 40.4922 58.8135C40.5991 58.4481 40.5417 58.0542 40.3349 57.7347C39.4418 56.3549 38.9697 54.7551 38.9697 53.1087C38.9697 50.0063 43.4214 46.9096 46.3932 45.2879C46.931 48.0089 48.475 50.4768 50.7487 52.1412C51.3015 52.5458 52.1636 52.4239 52.5777 51.8583C53.0046 51.2751 52.8779 50.4563 52.2947 50.0294C48.994 47.6132 47.8664 42.9847 49.7004 39.33C51.1329 36.4747 54.1232 34.6172 57.3195 34.6172C60.0968 34.6172 62.6671 35.9544 64.2682 38.2128L64.2683 38.3448C64.2631 39.2076 64.2607 41.1219 64.2636 45.4484H56.9839C56.4547 45.4484 55.9776 45.7672 55.775 46.2561C55.5724 46.745 55.6843 47.3078 56.0583 47.6821C58.1035 49.7283 58.1035 53.0576 56.0585 55.1039C54.0745 57.089 50.6205 57.083 48.6424 55.1039C48.1315 54.5927 47.303 54.5925 46.7918 55.1035C46.2806 55.6144 46.2804 56.443 46.7914 56.9541C46.9934 57.1563 47.2054 57.345 47.4246 57.522L44.1114 60.9246C42.3304 62.7133 42.3325 65.6182 44.1177 67.4043C45.868 69.1557 48.86 69.1478 50.6025 67.4044C51.1134 66.8931 51.1131 66.0647 50.602 65.5538C50.0906 65.0429 49.2624 65.043 48.7515 65.554C48.0309 66.2749 46.7137 66.2994 45.9689 65.5543C45.2013 64.7863 45.2013 63.5366 45.9689 62.7684C45.9729 62.7644 45.9769 62.7603 45.9808 62.7563C45.9808 62.7563 49.7991 58.8351 49.7995 58.8345C49.8439 58.7889 51.1684 59.1711 51.3348 59.1927C53.742 59.5042 56.1952 58.6693 57.9095 56.9541C60.3077 54.5545 60.8292 50.9774 59.474 48.0656H64.2658C64.2688 51.4125 64.2742 55.8401 64.2824 61.7002H61.0786V61.3696C61.0786 60.6468 60.4928 60.061 59.77 60.061C59.0473 60.061 58.4614 60.6468 58.4614 61.3696V64.6477C58.4614 65.3704 59.0473 65.9563 59.77 65.9563C60.4928 65.9563 61.0786 65.3704 61.0786 64.6477V64.3176H64.2861C64.287 64.9364 64.2957 70.7632 64.2992 72.9772H60.6364C60.415 72.3666 60.0611 71.7938 59.5724 71.3049C58.7064 70.4384 57.555 69.9613 56.3301 69.9613C55.1053 69.9613 53.9537 70.4384 53.0877 71.3049C52.5768 71.8162 52.5771 72.6447 53.0882 73.1557C53.5995 73.6664 54.4278 73.6663 54.9388 73.1553C56.6765 71.4175 59.5247 74.1368 57.7213 75.941C57.2104 76.4521 57.2105 77.2807 57.7217 77.7916C58.2146 78.2843 59.0665 78.2973 59.5723 77.7912C60.1986 77.1645 60.6046 76.4001 60.7919 75.5945H64.3034C64.3085 78.6086 64.3136 81.4618 64.3187 83.9954H54.052C53.7048 83.9954 53.3719 84.1333 53.1264 84.379C51.3391 86.1671 51.3391 89.0767 53.1263 90.865C54.8631 92.6029 57.8839 92.5933 59.611 90.8651C60.1219 90.3539 60.1218 89.5254 59.6106 89.0145C59.0994 88.5036 58.2712 88.5038 57.7603 89.0146C57.0245 89.7506 55.7088 89.7465 54.9776 89.0149C54.3276 88.3645 54.2279 87.3688 54.6788 86.6126H64.3242C64.329 88.8474 64.3424 93.4499 64.3445 93.8649C62.0947 95.4709 59.095 96.3828 56.009 96.3828ZM91.9511 74.9653C91.3114 75.2989 91.0623 76.0872 91.3943 76.7277C92.0269 77.9485 92.3477 79.2665 92.3477 80.6451C92.3477 83.8821 90.5504 86.8001 87.6571 88.2605C87.3036 88.4389 87.05 88.7677 86.9672 89.1548C86.0851 93.2754 81.0729 96.3828 75.3084 96.3828C72.1812 96.3828 69.1789 95.4712 66.9664 93.8664L66.9558 86.6125H71.6857C72.1618 88.637 73.9811 90.1491 76.148 90.1491C78.6762 90.1491 80.733 88.0914 80.733 85.5623C80.733 83.0332 78.6762 80.9756 76.148 80.9756C74.1698 80.9756 72.4803 82.2355 71.8388 83.9953H66.952L66.9398 75.5944H79.0934C79.6579 77.4878 81.4135 78.8725 83.4872 78.8725C86.0154 78.8725 88.0723 76.8149 88.0723 74.2858C88.0723 71.7566 86.0154 69.699 83.4872 69.699C81.4135 69.699 79.6579 71.0838 79.0934 72.9772H66.9359L66.9233 64.3176H69.7882C70.3527 66.211 72.1084 67.5957 74.1821 67.5957C76.7103 67.5957 78.7671 65.5381 78.7671 63.009C78.7671 60.4798 76.7103 58.4222 74.1821 58.4222C72.1084 58.4222 70.3527 59.807 69.7882 61.7004H66.9195L66.8996 48.0657H70.7219C71.3041 49.9302 73.0464 51.2874 75.0995 51.2874C77.6277 51.2874 79.6846 49.2297 79.6846 46.7006C79.6846 44.1715 77.6277 42.1139 75.0995 42.1139C73.0053 42.1139 71.2358 43.5262 70.6896 45.4485H66.8958L66.8852 38.2013C68.4384 35.95 71.0692 34.6172 73.9978 34.6172C78.6961 34.6172 82.5185 38.4419 82.5185 43.1431C82.5185 43.9507 83.1542 44.2728 83.4256 44.4103C89.0122 47.2401 92.3476 50.4919 92.3477 53.1087C92.3479 56.3673 90.213 60.2028 86.6407 60.3181C86.2913 60.3286 85.9668 60.4751 85.7273 60.7303C85.4878 60.9842 85.3622 61.3179 85.374 61.6673C85.3844 62.0088 85.5258 62.3281 85.7718 62.5663C86.0165 62.8044 86.3397 62.9353 86.6812 62.9353H86.6852C86.697 62.9353 86.7099 62.9353 86.7217 62.934C88.9093 62.6874 91.0349 61.8617 92.4843 60.1424C94.9784 61.681 96.5415 64.4262 96.5415 67.4013C96.5415 70.5904 94.7826 73.4888 91.9511 74.9653ZM74.1801 85.5623C74.1801 84.4763 75.0629 83.5927 76.148 83.5927C77.2331 83.5927 78.1159 84.4763 78.1159 85.5623C78.1159 86.6483 77.2331 87.5319 76.148 87.5319C75.0629 87.5319 74.1801 86.6483 74.1801 85.5623ZM81.5194 74.2856C81.5194 73.1996 82.4021 72.3161 83.4872 72.3161C84.5723 72.3161 85.4551 73.1996 85.4551 74.2856C85.4551 75.3716 84.5723 76.2552 83.4872 76.2552C82.4021 76.2552 81.5194 75.3718 81.5194 74.2856ZM72.2144 63.0088C72.2144 61.9228 73.0971 61.0393 74.1822 61.0393C75.2673 61.0393 76.1501 61.9228 76.1501 63.0088C76.1501 64.0948 75.2673 64.9784 74.1822 64.9784C73.0971 64.9784 72.2144 64.0948 72.2144 63.0088ZM73.1317 46.7005C73.1317 45.6145 74.0145 44.7309 75.0995 44.7309C76.1846 44.7309 77.0674 45.6145 77.0674 46.7005C77.0674 47.7865 76.1846 48.67 75.0995 48.67C74.0145 48.67 73.1317 47.7865 73.1317 46.7005Z" fill="url(#paint1_linear)"/>
<path d="M49.4898 75.3838C49.126 75.3524 48.7648 75.4754 48.4952 75.7214C48.2518 75.9439 48.1026 76.2475 48.0752 76.5759C48.0451 76.9253 48.1524 77.2642 48.3788 77.5312C48.6038 77.7982 48.9192 77.9617 49.2673 77.9918C49.3052 77.9944 49.3419 77.9957 49.3798 77.9957C49.707 77.9957 50.0197 77.874 50.2618 77.6529C50.5052 77.4304 50.6544 77.1268 50.6832 76.7984C50.6832 76.7971 50.6832 76.7971 50.6819 76.7971C50.7421 76.0787 50.2082 75.444 49.4898 75.3838Z" fill="url(#paint2_linear)"/>
<path d="M82.8379 58.8511C82.8379 58.8511 82.8379 58.8511 82.8366 58.8497C82.5919 58.6129 82.2687 58.4833 81.9285 58.4833C81.5699 58.4833 81.2349 58.6247 80.9863 58.8825C80.7442 59.1337 80.6133 59.4648 80.6199 59.8142C80.6251 60.1636 80.7664 60.4894 81.0177 60.7315C81.0177 60.7315 81.0177 60.7328 81.019 60.7328C81.2637 60.9697 81.5869 61.1005 81.9271 61.1005C82.2857 61.1005 82.6207 60.9579 82.8693 60.7001C83.3692 60.1819 83.3561 59.3536 82.8379 58.8511Z" fill="url(#paint3_linear)"/>
</g>
</g>
</g>
<defs>
<filter id="filter0_d" x="-10.1717" y="-10.1717" width="152.185" height="151.771" filterUnits="userSpaceOnUse" color-interpolation-filters="sRGB">
<feFlood flood-opacity="0" result="BackgroundImageFix"/>
<feColorMatrix in="SourceAlpha" type="matrix" values="0 0 0 0 0 0 0 0 0 0 0 0 0 0 0 0 0 0 127 0" result="hardAlpha"/>
<feMorphology radius="2.9062" operator="dilate" in="SourceAlpha" result="effect1_dropShadow"/>
<feOffset/>
<feGaussianBlur stdDeviation="3.63275"/>
<feColorMatrix type="matrix" values="0 0 0 0 0 0 0 0 0 1 0 0 0 0 0.407843 0 0 0 1 0"/>
<feBlend mode="normal" in2="BackgroundImageFix" result="effect1_dropShadow"/>
<feBlend mode="normal" in="SourceGraphic" in2="effect1_dropShadow" result="shape"/>
</filter>
<linearGradient id="paint0_linear" x1="0.000242341" y1="65.7179" x2="131.841" y2="65.7179" gradientUnits="userSpaceOnUse">
<stop stop-color="#8FFF70"/>
<stop offset="1" stop-color="#8FFFFF"/>
</linearGradient>
<linearGradient id="paint1_linear" x1="32.1587" y1="66.0877" x2="99.1587" y2="66.0877" gradientUnits="userSpaceOnUse">
<stop stop-color="#8FFF73"/>
<stop offset="1" stop-color="#8FFFF9"/>
</linearGradient>
<linearGradient id="paint2_linear" x1="48.0702" y1="76.7103" x2="50.6865" y2="76.7103" gradientUnits="userSpaceOnUse">
<stop stop-color="#8FFF73"/>
<stop offset="1" stop-color="#8FFFF9"/>
</linearGradient>
<linearGradient id="paint3_linear" x1="80.6196" y1="59.8149" x2="83.2356" y2="59.8149" gradientUnits="userSpaceOnUse">
<stop stop-color="#8FFF73"/>
<stop offset="1" stop-color="#8FFFF9"/>
</linearGradient>
<clipPath id="clip0">
<rect width="131.841" height="131.427" fill="white"/>
</clipPath>
<clipPath id="clip1">
<rect width="67" height="67" fill="white" transform="translate(32.1587 32)"/>
</clipPath>
</defs>
</svg>
